X: 24900
T: Maguire's
R: reel
M: 4/4
K: Dmajor
D2 ED FAAB|d2 fd BAFA|B2 BB AFBB|BAFD FEDC|
DEED FAAB|d2 fd BAFA|B2 BB AFBA|FEEF D4:|
|:defg afff|afff efdc|defg afff|abaf e2 dc|
defg afff|afff efdc|B2 BB AFBA|FEEF D4:|

